X: 1142
T: Captain Byng
B: australian traditional tunes wiki
B: ralph
M:2/4
L:1/16
R: Polka
Q: 1/4=100
K:G
V:1 
d2|"G"g3f g3d|"Em"B2G2 G2AB|"Am"cBA2 a3g|"D7"f2d2 e2f2|
"G"g3f g3d|"Em"B2G2 G2AB|"C"cBA2 "D"d2F2|"G"G4G2:|
|:A2|"G"B2G2 d2G2|"Em"B2G2 G2AB|"Am"cBA2 e2A2|"D7"c2A2 A3c|
"G"B2G2 d2G2|"Em"B2G2 G2AB|"C"cBA2 "D7"d2F2|"G"G4G2:|
% abcbook-tune_id 6342d53a7456553b79fcc4b6


% abcbook-boost 0
% abcbook-tablature 
% abcbook-transpose 
% abcbook-lastupdated 1665486563990
% abcbook-soundfonts 
% abcbook-repeats 1
% NFF Book 2022
% Bush Traditions recording played by Ray Mulligan

